src/main/resources/icons/AllIcons/actions/moveToBottomLeft.svg

<svg xmlns="http://www.w3.org/2000/svg" width="16" height="16" viewBox="0 0 16 16"><rect id="frame" width="16" height="16" fill="none"/><path fill="#6E6E6E" fill-rule="evenodd" d="M2 2h12v12H2V2zm1 1v10h10V3H3zm6 7v3H3v-3h6z"/></svg>

<!-- Copyright 2000-2021 JetBrains s.r.o. Use of this source code is governed by the Apache 2.0 license that can be found in the LICENSE file. -->
<svg xmlns="http://www.w3.org/2000/svg" width="16" height="16" viewBox="0 0 16 16">
  <path fill="#6E6E6E" fill-rule="evenodd" d="M2,2 L14,2 L14,14 L2,14 L2,2 Z M3,3 L3,13 L13,13 L13,3 L3,3 Z M9,10 L9,13 L3,13 L3,10 L9,10 Z"/>
</svg>
